img/svg/gg_facebook.svg

<svg width="25" height="25" viewBox="0 0 25 25" fill="none" xmlns="http://www.w3.org/2000/svg">
<path d="M9.69776 21.5234H13.6978V13.5134H17.3018L17.6978 9.53344H13.6978V7.52344C13.6978 7.25822 13.8031 7.00387 13.9907 6.81633C14.1782 6.62879 14.4325 6.52344 14.6978 6.52344H17.6978V2.52344H14.6978C13.3717 2.52344 12.0999 3.05022 11.1622 3.9879C10.2245 4.92559 9.69776 6.19736 9.69776 7.52344V9.53344H7.69776L7.30176 13.5134H9.69776V21.5234Z" fill="#3C5A9A"/>
</svg>

<?xml version="1.0" encoding="utf-8"?><svg width="25" height="25" fill="none" xmlns="http://www.w3.org/2000/svg" viewBox="0 0 25 25"><path d="M9.698 21.523h4v-8.01h3.604l.396-3.98h-4v-2.01a1 1 0 0 1 1-1h3v-4h-3a5 5 0 0 0-5 5v2.01h-2l-.396 3.98h2.396v8.01Z" fill="#3C5A9A"/></svg>
